!!!COM: Palestrina, Giovanni Perluigi da
!!!OPR: Missa In festis Apostolorum (II)
!!!OMD: Credo
!!!OTL: Et ex Patre
**kern	**kern	**kern	**kern	**kern
*Ibass	*Itenor	*Itenor	*Icalto	*Icant
!Bassus	!Tenor 2	!Tenor 1	!Altus	!Cantus
*clefF4	*clefGv2	*clefGv2	*clefG2	*clefG2
*k[]	*k[]	*k[]	*k[]	*k[]
*D:dor	*D:dor	*D:dor	*D:dor	*D:dor
*M4/2	*M4/2	*M4/2	*M4/2	*M4/2
=25	=25	=25	=25	=25
1E	0r	0r	0r	0r
1F	.	.	.	.
=26	=26	=26	=26	=26
1G	1B	0r	0r	0r
2E	1c	.	.	.
[2F	.	.	.	.
=27	=27	=27	=27	=27
4F]	1.d	0r	0r	0r
4E	.	.	.	.
4D	.	.	.	.
4E	.	.	.	.
4F	.	.	.	.
4G	.	.	.	.
[2A	2c	.	.	.
=28	=28	=28	=28	=28
2A]	1B	2r	1r	0r
2G#	.	2B	.	.
1A	[1A	1c	1e	.
=29	=29	=29	=29	=29
1D	1A]	2.d	1f	1r
.	.	4c	.	.
1E	1r	4B	1g	1b
.	.	4A	.	.
.	.	2G	.	.
=30	=30	=30	=30	=30
1AA	0r	1A	2e	1cc
.	.	.	2.f	.
1r	.	2F	.	[1dd
.	.	.	4e	.
.	.	2G	4d	.
.	.	.	4e	.
=31	=31	=31	=31	=31
1r	0r	1A	4f	2dd]
.	.	.	4g	.
.	.	.	1a	2cc
1E	.	2r	.	1b
.	.	[2e	2g#	.
=32	=32	=32	=32	=32
2AA	1A	2e]	1a	2a
1A	.	2A	.	1cc
.	2E	2.e	1r	.
2G#	[2e	.	.	2b
.	.	4d	.	.
=33	=33	=33	=33	=33
1A	2e]	1c	0r	2a
.	2c	.	.	2e
2G	1d	2B	.	2g
2F	.	2A	.	[2a
=34	=34	=34	=34	=34
1E	2c	2.e	1r	2a]
.	2B	.	.	2g#
.	.	4d	.	.
2r	1A	[1c	1e	1a
[2A	.	.	.	.
=35	=35	=35	=35	=35
2A]	0r	2c]	2A	1e
2G	.	2B	1e	.
2F	.	2c	.	2A
2F	.	4B	2d	[2a
.	.	4A	.	.
=36	=36	=36	=36	=36
1E	0r	1B	1e	2a]
.	.	.	.	2g#
1F	.	1A	2d	1a
.	.	.	2c	.
=37	=37	=37	=37	=37
2G	1r	0r	4B	2g
.	.	.	4c#	.
2D	.	.	2.d	2f
1A	2r	.	.	1e
.	.	.	8c#	.
.	.	.	8B	.
.	2A	.	2c#	.
=38	=38	=38	=38	=38
1r	2D	1r	2d	2.f
.	1d	.	1f	.
.	.	.	.	4g
2r	.	1A	.	[1a
[2A	2c#	.	2e	.
=39	=39	=39	=39	=39
2A]	1d	2D	2f	1a]
2D	.	1A	2f	.
2E	2c	.	[1e	2r
2E	2B	2G#	.	2b
=40	=40	=40	=40	=40
1AA	2A	1A	0e]	2cc
.	2.c	.	.	1cc
1C	.	[1G	.	.
.	4B	.	.	.
.	4G	.	.	2cc
.	4A	.	.	.
=41	=41	=41	=41	=41
1GG	4B	1G]	2.d	1b
.	4c	.	.	.
.	1d	.	.	.
.	.	.	4e	.
1D	.	1F	2f	2.a
.	2d	.	2d	.
.	.	.	.	4a
=42	=42	=42	=42	=42
[0AA	[0c#	[0E	[0e	[0a
=43	=43	=43	=43	=43
0AA]	0c#]	0E]	0e]	0a]
*-	*-	*-	*-	*-
!!!CDT: 1525/^1526/-1594/2/2
!!!OCY: Italia
!!!AGN: Mass (Paraphrase)
!!!AST: renaissance, vocal
!!!ASW: Gregorian Mass
!!!PWK: Masses, Book Mantuan II
!!!RNB: Cadence finals: A
!!!YOR: Le Opere Complete, v. 19, p. 1
!!!YOO: Rome, Italy: Fratelli Scalera
!!!END: 1992//
!!!EED: John Miller
!!!YEC: Copyright 2000, John Miller
!!!YEN: United States of America
!!!YEM: Rights to all derivative electronic formats reserved.
!!!YEM: Refer to licensing agreement for further details.
!!!YEM: This file must be accompanied by the licensing agreement.
!!!YEM: A copy of the licensing agreement may be found at http://www.music-cog.ohio-state.edu/HumdrumDatabases/Palestrina/license.txt
!!!EMD: converted to Humdrum by Bret Aarden
